azure-icons/command-1107-Bug.svg

<svg version="1.0" xmlns="http://www.w3.org/2000/svg" width="16" height="16"><path d="M16.46 11.39v-.99c0-1.57-1.24-2.85-2.8-2.96-.19-.41-.44-.78-.74-1.12 1.35-.29 2.37-1.48 2.37-2.91v-1h-1v.99c0 1.09-.9 1.98-2 1.98h-.38c-.35-.24-.75-.42-1.16-.56.35-.37.57-.87.57-1.43 0-.33-.08-.63-.22-.9l1.24-1.24-.7-.7-1.17 1.17c-.35-.25-.77-.4-1.23-.4h-.69c-.46 0-.89.16-1.23.41L6.14.55l-.7.7L6.68 2.5c-.14.27-.22.58-.22.9 0 .58.24 1.1.62 1.48-.35.14-.68.3-.99.51h-.36c-1.11 0-2.01-.89-2.01-1.98v-1h-1v.99c0 1.42 1.01 2.61 2.35 2.9-.27.35-.52.72-.71 1.12-1.64.02-2.97 1.34-2.97 2.98v.99h1v-.99c0-.96.69-1.76 1.61-1.94-.1.36-.15.74-.15 1.13v2.42c0 .07.02.14.02.2l-.14.1c-.65.47-1.08 1.16-1.22 1.94-.13.79.05 1.58.51 2.22l.58.81.81-.58-.57-.8c-.31-.43-.43-.95-.34-1.48.07-.41.27-.78.55-1.07.59 2.14 2.54 3.72 4.86 3.72h.17c2.31 0 4.25-1.57 4.85-3.69.64.68.74 1.74.18 2.52l-.58.81.81.58.58-.81c.96-1.33.64-3.2-.7-4.17l-.1-.07c0-.08.02-.15.02-.23V9.59c0-.37-.05-.73-.12-1.08.83.25 1.43 1 1.43 1.89v.99h1.01zM7.39 3.4c0-.64.52-1.16 1.16-1.16h.69c.64 0 1.16.52 1.16 1.16 0 .61-.48 1.11-1.09 1.15-.08 0-.15-.02-.22-.02h-.18c-.13 0-.24.03-.37.04-.63-.01-1.15-.53-1.15-1.17zm5.76 8.61c0 2.24-1.82 4.06-4.06 4.06h-.18c-2.24 0-4.06-1.82-4.06-4.06V9.59c0-2.24 1.82-4.06 4.06-4.06h.17c2.24 0 4.06 1.82 4.06 4.06v2.42z"/></svg>

<?xml version="1.0" encoding="utf-8"?>
<!-- Generator: Adobe Illustrator 23.0.6, SVG Export Plug-In . SVG Version: 6.00 Build 0)  -->
<svg version="1.0" id="Layer_1" xmlns="http://www.w3.org/2000/svg"  x="0px" y="0px"
	 width="16px" height="16px" viewBox="0 0 16 16" enable-background="new 0 0 16 16" xml:space="preserve">
<path d="M16.46,11.39V10.4c0-1.57-1.24-2.85-2.8-2.96c-0.19-0.41-0.44-0.78-0.74-1.12c1.35-0.29,2.37-1.48,2.37-2.91V2.41h-1V3.4
	c0,1.09-0.9,1.98-2,1.98h-0.38c-0.35-0.24-0.75-0.42-1.16-0.56c0.35-0.37,0.57-0.87,0.57-1.43c0-0.33-0.08-0.63-0.22-0.9l1.24-1.24
	l-0.7-0.7l-1.17,1.17C10.12,1.47,9.7,1.32,9.24,1.32H8.55c-0.46,0-0.89,0.16-1.23,0.41L6.14,0.55l-0.7,0.7L6.68,2.5
	C6.54,2.77,6.46,3.08,6.46,3.4c0,0.58,0.24,1.1,0.62,1.48C6.73,5.02,6.4,5.18,6.09,5.39H5.73c-1.11,0-2.01-0.89-2.01-1.98V2.41h-1
	V3.4c0,1.42,1.01,2.61,2.35,2.9C4.8,6.65,4.55,7.02,4.36,7.42C2.72,7.44,1.39,8.76,1.39,10.4v0.99h1V10.4
	c0-0.96,0.69-1.76,1.61-1.94C3.9,8.82,3.85,9.2,3.85,9.59v2.42c0,0.07,0.02,0.14,0.02,0.2l-0.14,0.1c-0.65,0.47-1.08,1.16-1.22,1.94
	c-0.13,0.79,0.05,1.58,0.51,2.22l0.58,0.81l0.81-0.58L3.84,15.9c-0.31-0.43-0.43-0.95-0.34-1.48c0.07-0.41,0.27-0.78,0.55-1.07
	c0.59,2.14,2.54,3.72,4.86,3.72h0.17c2.31,0,4.25-1.57,4.85-3.69c0.64,0.68,0.74,1.74,0.18,2.52l-0.58,0.81l0.81,0.58l0.58-0.81
	c0.96-1.33,0.64-3.2-0.7-4.17l-0.1-0.07c0-0.08,0.02-0.15,0.02-0.23V9.59c0-0.37-0.05-0.73-0.12-1.08c0.83,0.25,1.43,1,1.43,1.89
	v0.99H16.46z M7.39,3.4c0-0.64,0.52-1.16,1.16-1.16h0.69c0.64,0,1.16,0.52,1.16,1.16c0,0.61-0.48,1.11-1.09,1.15
	c-0.08,0-0.15-0.02-0.22-0.02H8.91c-0.13,0-0.24,0.03-0.37,0.04C7.91,4.56,7.39,4.04,7.39,3.4z M13.15,12.01
	c0,2.24-1.82,4.06-4.06,4.06H8.91c-2.24,0-4.06-1.82-4.06-4.06V9.59c0-2.24,1.82-4.06,4.06-4.06h0.17c2.24,0,4.06,1.82,4.06,4.06
	V12.01z"/>
</svg>
